packages/crayons-core/src/components/icon/icon-assets/icons/magic-wand.svg

<?xml version="1.0" encoding="UTF-8"?>
<svg width="14px" height="14px" viewBox="0 0 14 14" version="1.1" xmlns="http://www.w3.org/2000/svg" xmlns:xlink="http://www.w3.org/1999/xlink">
    <!-- Generator: Sketch 52.6 (67491) - http://www.bohemiancoding.com/sketch -->
    <title>icon/magic-wand</title>
    <desc>Created with Sketch.</desc>
    <g id="Icons-✅" stroke="none" stroke-width="1" fill="none" fill-rule="evenodd">
        <g id="Icons" transform="translate(-819.000000, -1597.000000)" fill="currentColor">
            <g id="icon/magic-wand" transform="translate(819.000000, 1597.000000)">
                <g id="magic-wand">
                    <path d="M13.86,5.6 L12.51,3.79 L13.23,1.66 C13.3173165,1.40686819 13.2525784,1.12610324 13.0632376,0.936762421 C12.8738968,0.747421605 12.5931318,0.682683483 12.34,0.77 L10.21,1.49 L8.4,0.14 C8.18427287,-0.0176468574 7.8983066,-0.0408333112 7.66,0.08 C7.42750158,0.204545848 7.28171199,0.446249642 7.28,0.71 L7.31,3 L5.47,4.27 C5.25254434,4.42439478 5.14171272,4.68893975 5.18417876,4.95222923 C5.22664481,5.21551871 5.41502953,5.43180298 5.67,5.51 L6,5.62 L0.48,11.18 C-0.157816628,11.8296122 -0.157816628,12.8703878 0.48,13.52 C0.790773077,13.8290384 1.21172886,14.0017382 1.65,14 C2.08827114,14.0017382 2.50922692,13.8290384 2.82,13.52 L8.37,8 L8.49,8.36 C8.56720819,8.61723865 8.78478892,8.80762179 9.05,8.85 L9.16,8.85 C9.3874569,8.84854874 9.60002661,8.73666994 9.73,8.55 L11,6.69 L13.26,6.69 C13.5211734,6.67094553 13.756487,6.52527516 13.89,6.3 C14.0080223,6.07856881 13.9965346,5.81052161 13.86,5.6 Z M1.86,12.53 C1.82203133,12.5931837 1.7537143,12.6318335 1.68,12.6318335 C1.6062857,12.6318335 1.53796867,12.5931837 1.5,12.53 C1.45111203,12.4828792 1.42349352,12.4179 1.42349352,12.35 C1.42349352,12.2821 1.45111203,12.2171208 1.5,12.17 L7.54,6.09 L7.82,6.18 L7.91,6.45 L1.86,12.53 Z M10.71,5.28 C10.4768204,5.26858515 10.2554293,5.38309778 10.13,5.58 L9.44,6.58 L9.44,6.46 L9.12,5.46 C9.03850519,5.22278633 8.83632076,5.0473055 8.59,5 L7.44,4.59 L8.44,3.9 C8.62957342,3.76800871 8.7418244,3.55099016 8.74,3.32 L8.74,2.11 L9.74,2.83 C9.9223917,2.96938838 10.1615352,3.01049118 10.38,2.94 L11.52,2.55 L11.13,3.69 C11.0595088,3.90846475 11.1006116,4.1476083 11.24,4.33 L11.96,5.33 L10.71,5.28 Z" id="Shape"></path>
                </g>
            </g>
        </g>
    </g>
</svg>

<svg viewBox="0 0 14 14"><path d="M13.86 5.6l-1.35-1.81.72-2.13a.7.7 0 0 0-.89-.89l-2.13.72L8.4.14a.71.71 0 0 0-.74-.06.72.72 0 0 0-.38.63L7.31 3 5.47 4.27a.7.7 0 0 0 .2 1.24l.33.11-5.52 5.56a1.67 1.67 0 0 0 0 2.34c.31.309.732.482 1.17.48a1.65 1.65 0 0 0 1.17-.48L8.37 8l.12.36a.7.7 0 0 0 .56.49h.11a.7.7 0 0 0 .57-.3L11 6.69h2.26a.8.8 0 0 0 .63-.39.69.69 0 0 0-.03-.7zm-12 6.93a.21.21 0 0 1-.36 0 .25.25 0 0 1 0-.36l6.04-6.08.28.09.09.27-6.05 6.08zm8.85-7.25a.65.65 0 0 0-.58.3l-.69 1v-.12l-.32-1A.7.7 0 0 0 8.59 5l-1.15-.41 1-.69a.7.7 0 0 0 .3-.58V2.11l1 .72a.7.7 0 0 0 .64.11l1.14-.39-.39 1.14a.7.7 0 0 0 .11.64l.72 1-1.25-.05z" fill="currentColor" fill-rule="evenodd"/></svg>
